azure-patterns/svg-checkmark-alt.svg

<svg xmlns="http://www.w3.org/2000/svg" viewBox="0 0 49 49">
                                
                            
  <path d="M24.7922 39.7274C33.3029 39.7274 40.2021 32.833 40.2021 24.3283C40.2021 15.8237 33.3029 8.92926 24.7922 8.92926C16.2816 8.92926 9.38232 15.8237 9.38232 24.3283C9.38232 32.833 16.2816 39.7274 24.7922 39.7274Z" fill="#0078D4"></path>
  <path d="M33.3992 19.1223L31.2664 16.9826L20.5604 27.6811L17.357 24.4715L15.2158 26.6112L20.5604 31.9521L33.3992 19.1223Z" fill="#50E6FF"></path>
  <path d="M42.4612 40.5698C45.9849 36.6274 48.2273 31.5056 48.5223 25.8699H43.6161C43.3379 30.1493 41.635 34.0412 38.9712 37.0823L42.4612 40.5698Z" fill="#0078D4"></path>
  <path d="M6.79447 8.55017C3.21175 12.5095 0.935672 17.6649 0.640625 23.3427H5.77445C6.06107 19.0718 7.75548 15.1883 10.4025 12.1556L6.79447 8.55017Z" fill="#50E6FF"></path>
  <path d="M8.59814 42.4737C12.5686 46.0202 17.7193 48.2694 23.4011 48.5474V43.5267C19.1271 43.2402 15.2409 41.5302 12.2062 38.8766L8.59814 42.4737Z" fill="#0078D4"></path>
  <path d="M0.640625 25.8699C0.935672 31.5477 3.21175 36.7032 6.78604 40.6625L10.394 37.057C7.74705 34.0244 6.05264 30.1409 5.77445 25.8699H0.640625Z" fill="#0078D4"></path>
  <path d="M42.4529 8.64284L38.9629 12.1304C41.6267 15.163 43.3296 19.0549 43.6162 23.3427H48.5224C48.2274 17.7071 45.985 12.5853 42.4529 8.64284Z" fill="#50E6FF"></path>
  <path d="M25.9297 48.5305C31.5862 48.2188 36.7116 45.9443 40.6568 42.381L37.1583 38.885C34.1151 41.5386 30.2121 43.2402 25.9297 43.5182V48.5305Z" fill="#0078D4"></path>
  <path d="M25.9297 0.699005V5.71129C30.2121 5.98928 34.1067 7.68251 37.1415 10.3276L40.6399 6.83168C36.7031 3.27675 31.5777 1.01069 25.9297 0.699005Z" fill="#50E6FF"></path>
  <path d="M23.4008 0.690582C17.7359 0.960151 12.5852 3.20936 8.61475 6.74744L12.2143 10.3445C15.2491 7.69936 19.1269 5.99771 23.3924 5.71129V0.690582H23.4008Z" fill="#50E6FF"></path>
</svg>

<svg xmlns="http://www.w3.org/2000/svg" viewBox="0 0 49 49"><path d="M24.792 39.727c8.51 0 15.41-6.894 15.41-15.399 0-8.504-6.9-15.399-15.41-15.399s-15.41 6.895-15.41 15.4c0 8.504 6.9 15.398 15.41 15.398z" fill="#0078D4"/><path d="M33.4 19.122l-2.134-2.14-10.706 10.7-3.203-3.21-2.141 2.14 5.344 5.34 12.84-12.83z" fill="#50E6FF"/><path d="M42.461 40.57a23.889 23.889 0 0 0 6.061-14.7h-4.906a18.833 18.833 0 0 1-4.645 11.212l3.49 3.488z" fill="#0078D4"/><path d="M6.794 8.55A23.84 23.84 0 0 0 .641 23.343h5.133a18.9 18.9 0 0 1 4.628-11.187L6.794 8.55z" fill="#50E6FF"/><path d="M8.598 42.474a23.914 23.914 0 0 0 14.803 6.073v-5.02a18.9 18.9 0 0 1-11.195-4.65l-3.608 3.597zM.64 25.87a23.88 23.88 0 0 0 6.146 14.793l3.608-3.606a18.838 18.838 0 0 1-4.62-11.187H.641z" fill="#0078D4"/><path d="M42.453 8.643l-3.49 3.487a18.85 18.85 0 0 1 4.653 11.213h4.906a23.85 23.85 0 0 0-6.07-14.7z" fill="#50E6FF"/><path d="M25.93 48.53a23.879 23.879 0 0 0 14.727-6.149l-3.499-3.496a18.926 18.926 0 0 1-11.228 4.633v5.013z" fill="#0078D4"/><path d="M25.93.699v5.012a18.892 18.892 0 0 1 11.212 4.617l3.498-3.496A23.863 23.863 0 0 0 25.93.699zM23.4.69C17.737.96 12.586 3.21 8.616 6.748l3.6 3.598A18.91 18.91 0 0 1 23.391 5.71V.691h.009z" fill="#50E6FF"/></svg>
